src/assets/filled/Archive1.svg

<?xml version="1.0" encoding="UTF-8"?>
<svg width="24" height="24" viewBox="0 0 24 24" xmlns="http://www.w3.org/2000/svg">
 <path d="M22 5V7C22 8.83 21.17 9.82 19.5 9.97C19.34 9.99 19.17 10 19 10H5C4.83 10 4.66 9.99 4.5 9.97C2.83 9.82 2 8.83 2 7V5C2 3 3 2 5 2H19C21 2 22 3 22 5Z"/>
 <path d="m5.5 11.25c-0.55 0-1 0.45-1 1v6.75c0 2 0.5 3 3 3h9c2.5 0 3-1 3-3v-6.75c0-0.55-0.45-1-1-1h-13zm8.32 4.5h-3.64c-0.41 0-0.75-0.34-0.75-0.75s0.34-0.75 0.75-0.75h3.64c0.41 0 0.75 0.34 0.75 0.75s-0.34 0.75-0.75 0.75z"/>
</svg>

<svg width="24" height="24" viewBox="0 0 24 24"  xmlns="http://www.w3.org/2000/svg">
<path d="M22 5V7C22 8.83 21.17 9.82 19.5 9.97C19.34 9.99 19.17 10 19 10H5C4.83 10 4.66 9.99 4.5 9.97C2.83 9.82 2 8.83 2 7V5C2 3 3 2 5 2H19C21 2 22 3 22 5Z" />
<path d="M5.5 11.25C4.95 11.25 4.5 11.7 4.5 12.25V19C4.5 21 5 22 7.5 22H16.5C19 22 19.5 21 19.5 19V12.25C19.5 11.7 19.05 11.25 18.5 11.25H5.5ZM13.82 15.75H10.18C9.77 15.75 9.43 15.41 9.43 15C9.43 14.59 9.77 14.25 10.18 14.25H13.82C14.23 14.25 14.57 14.59 14.57 15C14.57 15.41 14.23 15.75 13.82 15.75Z" />
</svg>
